svg/color/btrst.svg

<svg width="64" height="65" viewBox="0 0 64 65" fill="none" xmlns="http://www.w3.org/2000/svg">
<rect y="0.303711" width="64" height="64" rx="32" fill="white"/>
<rect x="0.5" y="0.803711" width="63" height="63" rx="31.5" stroke="#070B14" stroke-opacity="0.15"/>
<path d="M32.1111 45.3249C34.3333 45.3249 36.5556 44.6582 38.7778 43.5471C45 39.9915 47.2222 31.7693 43.6667 25.5471C40.1111 19.3249 31.8889 17.1026 25.6667 20.6582C22.5556 22.436 20.5556 25.3249 19.4444 28.6582C18.5556 31.9915 19 35.5471 20.7778 38.6582C23 43.1026 27.4444 45.3249 32.1111 45.3249ZM23.4444 29.9915C24.1111 27.7693 25.4444 25.7693 27.6667 24.6582C29 23.7693 30.5556 23.5471 32.1111 23.5471C35.2222 23.5471 38.1111 25.1026 39.8889 27.9915C42.3333 32.2137 40.7778 37.7693 36.5556 40.2137C32.3333 42.6582 26.7778 41.1026 24.3333 36.8804C23.2222 34.6582 22.7778 32.2137 23.4444 29.9915Z" fill="#1A1A1D"/>
<path d="M46.7778 23.5471C48.5556 26.4359 51.2222 28.6582 54.5556 29.5471C55.6667 29.7693 56.7778 29.9915 57.8889 29.9915C58.5556 29.9915 59 29.9915 59.6667 29.7693C59.4445 28.4359 59.2222 27.1026 59 25.5471C57.8889 25.7693 56.7778 25.5471 55.6667 25.3248C53.4444 24.6582 51.6667 23.3248 50.3333 21.3248C49.2222 19.3248 48.7778 17.1026 49.4444 14.8804C49.6667 13.7693 50.3333 12.8804 51 11.9915C49.8889 11.1026 49 10.2137 47.6667 9.32483C46.5556 10.6582 45.8889 12.2137 45.4444 13.7693C44.5556 17.3248 45 20.6582 46.7778 23.5471Z" fill="#1A1A1D"/>
<path d="M54.5556 34.8804C51.2222 35.7693 48.5556 37.7693 46.7778 40.8804C45 43.7693 44.5556 47.3248 45.4444 50.6582C45.8889 52.4359 46.7778 53.7693 47.6667 55.1026C48.7778 54.2137 49.8889 53.3248 51 52.4359C50.3333 51.547 49.8889 50.6582 49.4444 49.547C48.7778 47.3248 49.2222 45.1026 50.3333 43.1026C51.4444 41.1026 53.4444 39.7693 55.6667 39.1026C56.7778 38.8804 57.8889 38.6582 59 38.8804C59.2222 37.547 59.4445 36.2137 59.6667 34.6582C57.8889 34.2137 56.3333 34.4359 54.5556 34.8804Z" fill="#1A1A1D"/>
<path d="M31.8889 53.5471C35.4445 53.5471 38.5556 55.7693 39.8889 58.8804C41.2223 58.4359 42.5556 57.9915 43.8889 57.3248C41.8889 52.6582 37.4445 49.3248 32.1112 49.3248C26.7778 49.3248 22.1112 52.6582 20.3334 57.3248C21.6667 57.9915 23 58.4359 24.3334 58.8804C25.4445 55.7693 28.3334 53.5471 31.8889 53.5471Z" fill="#1A1A1D"/>
<path d="M31.889 15.1026C37.2223 15.1026 41.889 11.7692 43.6668 7.10255C42.3334 6.43589 41.2223 5.99144 39.6668 5.547C38.3334 8.65811 35.2223 10.8803 31.6668 10.8803C28.1112 10.8803 25.0001 8.65811 23.6667 5.547C22.3334 5.99144 21.0001 6.43589 19.6667 7.10255C22.1112 11.7692 26.5556 15.1026 31.889 15.1026Z" fill="#1A1A1D"/>
<path d="M17.2223 40.8804C15.4445 37.9915 12.7778 35.7693 9.44449 34.8804C7.66671 34.436 6.11115 34.436 4.33337 34.6582C4.5556 35.9915 4.77782 37.3248 5.00004 38.8804C5.44449 38.8804 5.66671 38.8804 6.11115 38.8804C6.77782 38.8804 7.66671 38.8804 8.33338 39.1026C10.5556 39.7693 12.3334 41.1026 13.6667 43.1026C15.4445 46.2137 15 49.9915 13 52.6582C14.1112 53.5471 15 54.4359 16.3334 55.3248C19.2223 51.1026 19.8889 45.3248 17.2223 40.8804Z" fill="#1A1A1D"/>
<path d="M9.44449 29.5471C12.7778 28.6582 15.4445 26.6582 17.2223 23.5471C19 20.6582 19.4445 17.1026 18.5556 13.7693C18.1112 11.9915 17.2223 10.6582 16.3334 9.32483C15 10.2137 13.8889 11.1026 13 11.9915C13.6667 12.8804 14.1112 13.7693 14.5556 14.8804C15.2223 17.1026 14.7778 19.3248 13.6667 21.3248C12.5556 23.3248 10.5556 24.6582 8.33338 25.3248C7.22226 25.5471 6.11115 25.7693 5.00004 25.5471C4.77782 26.8804 4.5556 28.2137 4.33337 29.7693C5.00004 29.7693 5.44449 29.9915 6.11115 29.9915C7.22226 29.9915 8.33338 29.9915 9.44449 29.5471Z" fill="#1A1A1D"/>
</svg>

<svg xmlns="http://www.w3.org/2000/svg" width="64" height="65" fill="none" viewBox="0 0 64 65"><rect width="64" height="64" y=".304" fill="#fff" rx="32"/><rect width="63" height="63" x=".5" y=".804" stroke="#070B14" stroke-opacity=".15" rx="31.5"/><path fill="#1A1A1D" d="M32.111 45.325c2.222 0 4.445-.667 6.667-1.778 6.222-3.555 8.444-11.778 4.889-18s-11.778-8.444-18-4.889c-3.111 1.778-5.111 4.667-6.223 8-.888 3.333-.444 6.89 1.334 10 2.222 4.445 6.666 6.667 11.333 6.667M23.444 29.99c.667-2.222 2-4.222 4.223-5.333 1.333-.889 2.889-1.11 4.444-1.11 3.111 0 6 1.555 7.778 4.444 2.444 4.222.889 9.777-3.333 12.222-4.223 2.444-9.778.889-12.223-3.334-1.11-2.222-1.555-4.666-.889-6.889m23.334-6.443c1.778 2.889 4.444 5.111 7.778 6 1.11.222 2.222.444 3.333.444.667 0 1.111 0 1.778-.222A170 170 0 0 1 59 25.547c-1.111.222-2.222 0-3.333-.222q-3.334-1-5.334-4c-1.11-2-1.555-4.222-.889-6.445.223-1.11.89-2 1.556-2.889-1.111-.888-2-1.777-3.333-2.666-1.111 1.333-1.778 2.889-2.223 4.444-.888 3.556-.444 6.89 1.334 9.778m7.778 11.333c-3.334.89-6 2.89-7.778 6-1.778 2.89-2.222 6.445-1.334 9.778.445 1.778 1.334 3.111 2.223 4.445L51 52.436c-.667-.889-1.111-1.778-1.556-2.889-.666-2.222-.222-4.444.89-6.444 1.11-2 3.11-3.334 5.333-4 1.11-.223 2.222-.445 3.333-.223.222-1.333.444-2.666.667-4.222-1.778-.444-3.334-.222-5.111.222M31.889 53.547c3.555 0 6.667 2.222 8 5.333 1.333-.444 2.667-.889 4-1.555-2-4.667-6.445-8-11.778-8s-10 3.333-11.778 8c1.334.666 2.667 1.11 4 1.555 1.112-3.11 4-5.333 7.556-5.333m0-38.444c5.333 0 10-3.334 11.778-8a21.4 21.4 0 0 0-4-1.556c-1.334 3.111-4.445 5.333-8 5.333-3.556 0-6.667-2.222-8-5.333-1.334.444-2.667.889-4 1.556 2.444 4.666 6.889 8 12.222 8M17.222 40.88c-1.778-2.889-4.444-5.11-7.778-6-1.777-.444-3.333-.444-5.11-.222.222 1.334.444 2.667.666 4.222h1.111c.667 0 1.556 0 2.222.223q3.334 1 5.334 4c1.777 3.11 1.333 6.889-.667 9.555 1.111.89 2 1.778 3.333 2.667 2.89-4.222 3.556-10 .89-14.445M9.444 29.547c3.334-.889 6-2.889 7.778-6 1.778-2.889 2.223-6.444 1.334-9.778-.445-1.777-1.334-3.11-2.223-4.444q-2 1.334-3.333 2.667c.667.888 1.111 1.777 1.556 2.888.666 2.223.222 4.445-.89 6.445-1.11 2-3.11 3.333-5.333 4-1.11.222-2.222.444-3.333.222a181 181 0 0 0-.667 4.222c.667 0 1.111.223 1.778.223 1.111 0 2.222 0 3.333-.445"/></svg>
